X:1
T:Jesus, Blessèd Savior
T:Frances Ridley Havergal,  1871
T:Jesus, Blessèd Savior
T:Public Domain
T:Public Domain
C:Frances Ridley Havergal,  1871
Z:Public Domain
%%score ( 1 2 ) ( 3 4 )
L:1/8
M:4/4
K:G
V:1 treble 
V:2 treble 
V:3 bass 
V:4 bass 
V:1
 [DB]3 [DB] [DB]2 [CA]2 | [B,G]4 [B,E]4 | [Cc]3 [DB] [EA]2 [EG]2 | [DF]8 | %4
w: 1.~Je- sus, bless- èd|Sav- ior,|help us now to|raise|
w: 2.~Je- sus, ho- ly|Sav- ior,|on- ly Thou canst|tell|
w: 3.~Je- sus, lov- ing|Sav- ior,|on- ly Thou dost|know|
w: 4.~Je- sus, pre- cious|Sav- ior,|make us all Thine|own,|
 [Dd]2 [FA]2 [GB]2 [Fc]2 | [GB]4 [DG]4 | [DA]3 [EG] [DF]2 [^CE]2 | D8 | D2 D2 [DE]2 [DF]2 | %9
w: Songs of glad thanks-|giv- ing,|songs of ho- ly|praise.|how kind and gra-|
w: How we oft- en|stum- bled,|how we oft- en|fell!|our sins (so ma-|
w: All that may be-|fall us|as we on- ward|go;|we hum- bly pray|
w: Make us Thine for-|ev- er,|make us Thine a-|lone.|each day, each mo-|
 [DA]4 [DG]4 | G2 G2 [Gc]2 (FE) | [^DB]8 | (G2 A)[B,A] [EB]2 [Gc]2 | [Dd]4 D4 | %14
w: hast al-|ways been! Oh, how *|ings|ev- * ery day has|Je- sus,|
w: ior, Thou|dost know: In Thy *|cious|wash * us white as|Jes- us,|
w: us by|the hand, Lead us *|ward|to * the bet- ter|Je- sus,|
w: this glad|new year, Be for *|ly,|Jes- * us, Sav- ior|Then, O|
 [CE]2 [Ec]2 [GB]2 [FA]2 | G8 | [GB]3 [GB] [GB]2 [FA]2 | G4 [B,E]4 | [Cc]3 [DB] [EA]2 [EG]2 | %19
w: èd Sav- ior, now|our|es hear, For Thy|grace and|vor crown- ing all|
w: èd Sav- ior, keep|us|Thy fear, Let Thy|grace and|vor par- don all|
w: èd Sav- ior, keep|us|er near, Let Thy|grace and|vor shield us all|
w: èd Sav- ior, ne-|ver|we fear: For Thy|grace and|vor crown our bright|
 [DF]8 | [B,G]2 [CA]2 [DB]2 [Ec]2 | [Dd]4 D4 | [CE]2 [Ec]2 [GB]2 [FA]2 | [B,G]8 |] %24
w: the|year. * * *||||
w: the|year. * * *||||
w: the|year. * * *||||
w: New|Year. * * *||||
V:2
 x8 | x8 | x8 | x8 | x8 | x8 | x8 | D8 | D2 D2 x4 | x8 | G2 G2 c2 x2 | x8 | B,3 x5 | x4 D4 | x8 | %15
w: |||||||Oh,|cious Thou||ma- ny bless-||seen!|bless-||
w: |||||||All|ny!) Sav-||blood most pre-||snow.|bless-||
w: |||||||So|Thee, take||ev- er up-||land.|bless-||
w: |||||||Let|ment of||Je- sus on-||dear.|bless-||
 G8 | x8 | G4 x4 | x8 | x8 | x8 | x4 D4 | x8 | x8 |] %24
w: prais-||fa-|||||||
w: in||fa-|||||||
w: ev-||fa-|||||||
w: need||fa-|||||||
V:3
 [G,,G,]3 [G,,G,] [B,,G,]2 [D,F,]2 | [E,G,]4 [E,G,]4 | [A,,G,]3 [B,,^G,] [C,A,]2 [^C,A,]2 | %3
 [D,A,]8 | [D,F,]2 [C,A,]2 [B,,D]2 [A,,D]2 | [G,,D]4 [G,B,]4 | [F,A,]3 [G,B,] A,2 [A,,G,]2 | %7
 [D,F,]8 | [D,F,]2 [D,F,]2 [D,G,]2 [D,A,]2 | [D,C]4 [D,B,]4 | [E,B,]2 [E,B,]2 [A,,B,]2 (A,G,) | %11
 [B,,F,]8 | E,3 E, [E,G,]2 [E,G,]2 | [D,F,]4 [B,,G,]4 | [C,G,]2 [A,,A,]2 [D,B,]2 [D,C]2 | %15
 [G,,B,]8 | [G,,D]3 [G,,D] [B,,D]2 [D,C]2 | [E,B,]4 [E,G,]4 | [A,,A,]3 [B,,^G,] [C,A,]2 [^C,A,]2 | %19
 [D,A,]8 | [E,G,]2 [E,G,]2 [D,G,]2 [C,G,]2 | [B,,G,]4 [B,,G,]4 | [C,G,]2 [A,,A,]2 [D,B,]2 [D,C]2 | %23
 [G,,G,]8 |] %24
V:4
 x8 | x8 | x8 | x8 | x8 | x8 | x4 A,2 x2 | x8 | x8 | x8 | x6 A,,2 | x8 | x3 F,2 x3 | x8 | x8 | x8 | %16
 x8 | x8 | x8 | x8 | x8 | x8 | x8 | x8 |] %24

